X:1
T:UK Drill Instrumental
R:UK Drill
M:4/4 
L:1/16 
K:Bmin 
|: "Bm"B4z4 B2A2 B4 z4 | "G"G4z4 "D"D2C2 D4 z4 | "A"A4z4 "Bm"B4z4 :|
|: "Bm"b4z4 b2a2 b4 z4 | "G"g4z4 "D"d2c2 d4 z4 | "A"a4z4 "Bm"b4z4 :|
|: "Bm"B4A4B4 z4 | "G"G4F4G4 z4 |"D"D4C4D4 z4 | "A"A4G4A4 z4 :|
| "Bm"B4 b4 "G" g4 "D" d4 | "A" a4 "Bm" B4z4 | "Bm" B4z4 B2A2 B4 z4 |
| "G" G4z4 "D" D2C2 D4 z2 | "A" A6 z2 "Bm" B8 :| 
The notes are now in their natural form, except for the B minor key signature, which includes a C sharp and F sharp by default.